X:1
T:Doing the Will of God
T:Ethelwyn Taylor, 1902
T:Doing the Will of God
T:Public Domain
T:Public Domain
C:Ethelwyn Taylor, 1902
Z:Public Domain
%%score ( 1 2 ) ( 3 4 )
L:1/8
M:6/8
K:G
V:1 treble 
V:2 treble 
V:3 bass 
V:4 bass 
V:1
 [B,D] | [B,D][CE][CF] [B,G][DA][DG] | ([C-G]3 [CF]2) [CE] | [CD][CF][DG] [FA]2 [F^A] | %4
w: 1.~My|life to the Sav- ior I|gave, * And|thus I be- came His|
w: 2.~In|peace I am liv- ing each|day, * As|heav’n- ward I wend my|
w: 3.~The|sto- ry to o- thers I|tell, * That|with my soul it is|
w: 4.~The|Sav- ior is com- ing a-|gain, * And|then o- ver all He’ll|
 [GB]3- [GB]2 D | [DG][DA][GB] [Gd]2 [GB] | [FA][=FB][Ec] (EB)[EA] | [DG][DF][DG] [FB]2 [FA] | %8
w: slave; * And|by His power, I’m liv-|ing each hour, And * do-|the will of God. *|
w: way; * The|is so bright, I know|I am right, And * do-|the will of God. Do-|
w: well; * That|too, may share the home|o- ver there, By * do-|the will of God. *|
w: reign; * The|that we fear will then|dis- ap- pear, For * that|the will of God. *|
 G3- G2 z ||"^Refrain" D[DE]>[DF] [DG]2 [DA] | [DF]3- [DF]2 z | [CD][CF]>[DG] [FA]2 [F^A] | %12
w: ||||
w: ing *|will of God, Do- ing|will *|of God; I’m hap- py|
w: ||||
w: ||||
 [GB]3- [GB]2 [GB] | [Gd]<[Gd][Gd] [DB]2 [DB]/[DB]/ | [DA][DB][Fc] (ed)[Ec] | %15
w: |||
w: and * free,|And the sweet thing to me|Is do- ing the * will|
w: |||
w: |||
 [DB][Gd][Fc] [GB]2 [DA] | ([DG]3- [DG]2) |] %17
w: ||
w: God. * * * *||
w: ||
w: ||
V:2
 x | x6 | x6 | x6 | x5 D | x6 | x3 E2 x | x6 | G3- G2 x || D x5 | x6 | x6 | x6 | x6 | x3 G2 x | %15
w: ||||now||ing|||||||||
w: ||||path||ing||the *|the|||||of|
w: ||||they,||ing|||||||||
w: ||||sin||is|||||||||
 x6 | x5 |] %17
w: ||
w: ||
w: ||
w: ||
V:3
 G, | G,G,G, G,[G,C][G,B,] | [D,A,]3- [D,A,]2 [D,G,] | [D,F,][D,A,][D,B,] [D,C]2 [D,^C] | %4
 [G,D]3- [G,D]2 [G,B,] | [G,B,][G,C][G,D] [G,B,]2 [G,D] | [D,D][G,D][C,C] [C,G,]2 [C,A,] | %7
 [D,B,][D,A,][D,B,] [D,D]2 [D,C] | [G,,G,B,]3- [G,,G,B,]2 z || [G,B,][G,B,]>[G,B,] [G,B,]2 [G,C] | %10
 [D,C]3- [D,C]2 z | [D,A,][D,A,]>[D,B,] [D,C]2 [D,^C] | [G,D]3- [G,D]2 [G,D] | %13
 [G,B,]<[G,B,][G,B,] G,2 G,/G,/ | [D,F,][D,G,][D,A,] (CB,)[C,A,] | %15
 [D,G,][D,B,][D,A,] [D,D]2 [D,C] | [G,,G,B,]3- [G,,G,B,]2 |] %17
V:4
 G, | G,G,G, G, x2 | x6 | x6 | x6 | x6 | x6 | x6 | x6 || x6 | x6 | x6 | x6 | x3 G,2 G,/G,/ | %14
 x3 G,2 x | x6 | x5 |] %17

